X:1
T:Clark’s Grove, CM
T:Clark’s Grove, CM
T:William Augustine Ogden, 1872
T:Public Domain Courtesy of the Cyber Hymnal™
C:William Augustine Ogden, 1872
Z:Public Domain
Z:Courtesy of the Cyber Hymnal™
%%score 1 2
L:1/8
Q:1/4=100
M:3/4
K:Ab
V:1 treble 
V:2 bass 
V:1
 [CE]2 | [CE]>[CE] [CE][A,C] [CE][CA] | [CA]4 [CE]2 | [DF][DF] [FA]2 [DF]2 | [CE]4 [CE]2 | %5
 [CE]>[CE] [CE][A,C] [A,C][CA] | [CA]4 [EA]2 | [EB][EB] [Ec]2 [DB]2 | [CA]4 |] %9
V:2
 [A,,A,]2 | [A,,A,]>[A,,A,] [A,,A,][A,,A,] [A,,A,][A,,A,] | [A,,A,]4 [A,,A,]2 | %3
 [D,A,][D,A,] [D,A,]2 [D,A,]2 | [A,,A,]4 [A,,A,]2 | [A,,A,]>[A,,A,] [A,,A,][A,,A,] [A,,A,][A,,A,] | %6
 [A,,A,]4 [C,A,]2 | [E,G,][E,G,] [E,A,]2 [E,G,]2 | [A,,A,]4 |] %9

